public/images/icons/hand-bag.svg

<svg width="18" height="18" viewBox="0 0 18 18" fill="none" xmlns="http://www.w3.org/2000/svg">
<path d="M9 1.5C10.3924 1.5 11.7277 2.05312 12.7123 3.03769C13.6969 4.02226 14.25 5.35761 14.25 6.75H15.0555C15.2444 6.75001 15.4264 6.8213 15.565 6.94964C15.7036 7.07798 15.7887 7.2539 15.8032 7.44225L16.4377 15.6923C16.4531 15.8906 16.389 16.0868 16.2596 16.2379C16.1302 16.389 15.9461 16.4824 15.7477 16.4977L15.69 16.5H2.31C2.11109 16.5 1.92032 16.421 1.77967 16.2803C1.63902 16.1397 1.56 15.9489 1.56 15.75L1.56225 15.6923L2.19675 7.44225C2.21129 7.2539 2.29638 7.07798 2.43501 6.94964C2.57363 6.8213 2.75559 6.75001 2.9445 6.75H3.75C3.75 5.35761 4.30312 4.02226 5.28769 3.03769C6.27225 2.05312 7.60761 1.5 9 1.5ZM14.3602 8.25H3.639L3.11925 15H14.88L14.3602 8.25ZM10.5 9.75V11.25H7.5V9.75H10.5ZM9 3C8.03365 3.00006 7.10463 3.37316 6.40666 4.04149C5.7087 4.70983 5.29569 5.62181 5.25375 6.58725L5.25 6.75H12.75C12.7499 5.78365 12.3768 4.85463 11.7085 4.15667C11.0402 3.4587 10.1282 3.04569 9.16275 3.00375L9 3Z" fill="#B1B1B1"/>
</svg>

<svg width="18" height="18" fill="none" xmlns="http://www.w3.org/2000/svg"><path d="M9 1.5a5.25 5.25 0 015.25 5.25h.806a.75.75 0 01.747.692l.635 8.25a.75.75 0 01-.69.806l-.058.002H2.31a.75.75 0 01-.75-.75l.002-.058.635-8.25a.75.75 0 01.748-.692h.805A5.25 5.25 0 019 1.5zm5.36 6.75H3.64L3.119 15H14.88l-.52-6.75zm-3.86 1.5v1.5h-3v-1.5h3zM9 3a3.75 3.75 0 00-3.746 3.587l-.004.163h7.5a3.75 3.75 0 00-3.587-3.746L9 3z" fill="#B1B1B1"/></svg>
